X:13
T:Ava Maria
C:Schubert
N: TablEdited by: Ken Yearick 
L:1/8
Q:1/4=97
M:4/4
K:D
D/F/A/d/ f/A/d/f/ D/F/A/d/ f/A/d/f/ | f/F/A/d/ f/A/d/f/ D/F/A/d/ f/A/d/f/ | g/E/B/d/ g/B/d/g/ D/E/B/d/ g/B/d/g/ | 
a/E/A/c/ a/E/G/c/ A,/E/A/c/ e/G/c/e/ | f/F/A/d/ f/F/A/d/ D/F/A/d/ f/A/d/f/ | b/B/d/f/ b/B/d/f/ D/D/d/D/ c/F/d/F/ | 
e/E/^G/B/ e/G/B/f/ e/E/G/B/ e/E/G/B/ | a/E/A/c/ a/E/A/c/ A,/G/A/G/ B/G/c/G/ | 
f/A,/F/A/ d/F/A/e/ f/A,/D/F/ A/d/f/a/ | d/D/B/D/ d/D/B/D/ B,/B/d/B/ e/B/f/B/ | 
^g/E/B/d/ g/B/d/f/ e/E/^G/B/ e/E/G/B/ | c/E/A/E/ C/E/A/E/ A,/E/A/c/ e/F/B/c/ | 
f/^D/A/=c/ f/D/A/c/ A,/A/f/^d/ g/A/a/=d/ | b/G/e/G/ E/G/B/G/ B/E/G/E/ E/G/B/G/ | 
e/E/^A/E/ e/E/A/E/ G/A/e/A/ f/A/g/A/ | a/A/d/A/ A,/D/F/A/ A/D/F/D/ D/F/A/d/ | 
d/F/B/F/ d/F/B/F/ B,/D/d/B/ e/B/f/B/ | g/B/d/g/ g/B/d/B/ E/B/g/d/ a/d/b/g/ | c'/A/e/g/ c'/A/e/b/ a/G/c/e/ a/G/c/e/ | 
f/F/A/d/ f/A/d/f/ D/F/B/d/ f/A/d/f/ | a/=c/d/c/ D/c/d/c/ f/A/c/A/ D/A/c/f/ | b/D/G/B/ b/D/G/B/ B/B,/D/G/ B/D/F/B/ | 
b/D/G/B/ b/D/G/B/ B/B,/D/G/ B/D/G/B/ | d/A/D/A/ d/A/D/A/ =f/A/c/d/ f/A/d/D/ | 
d/^A/e/g/ d/A/e/g/ ^A,/D/G/D/ A,/E/G/d/ | e/E/G/c/ e/E/G/c/ A,/G/e/G/ d/G/c/G/ | 
a/F/A/d/ a/F/A/f/ d/F/A/F/ d/F/A/F/ | g/E/B/d/ g/E/B/d/ A,/G/g/G/ f/G/e/G/ | e/c/g/a/ e/c/g/c'/ a/A/c/g/ a/A/c/g/ | 
b/^G/d/=f/ b/G/d/f/ A/b/B/b/ c/c'/d/d'/ | f'/d/f/a/ f'/d/f/a/ A/A/f/d/ A/a/F/f/ | 
e/G/B/d/ e/G/B/d/ A,/G/B/b/ c/c'/B/b/ | A/a/e/e'/ c/c'/A/a/ G/g/E/e/ C/c/A/a/ | 
D/D/A/=c/ f/A/c/f/ D/D/A/c/ f/A/c/f/ | D/D/G/B/ d/g/d/B/ d/B/G/B/ G/E/G/E/ | D/C/A/c/ e/g/e/c/ e/c/A/c/ F/G/F/E/ | 
[a8d8F8A,8] | 
 

